X:222
T:Queens March. JC.227
R:March
S:John Clare,Poet,Helpstone (1793-1864)
N:No TS in MS.
O:England
A:Northamptonshire
Z:vmp.P. Headford
M:C
L:1/8
Q:2/4=75
K:D
d4 A4|\
GFED F2A2|d3d e3e|gfed dcBA|d4 A4|!
GFED F2A2|d2gd a2gf|e2e>e e2z2:|!
|:g3e dcBA|f2d2 f2d2|g3e dcBA|a2f2 a2f2|!
d3e efge|dcBA” crot”a3g|f2f>g e2ef|d2d>d d2z2:|

